X:4
T: Paddy O'Rafferty(K.Burke/G Foley)
M: 6/8
L: 1/8
R: jig
K: Dmaj
|:Ecc EBB|AcB AFE|Ecc EBB|ABA AFE|
Ecc EBB|ABc d2f|ecA BAF|AFE E3:|
|:cAF E2F|ABc BAB|cAF EFA|ABA AFE|
cAF E2F|ABc d2f|ecA BAF|ABA AFE:|
|:AcA AcA|Ace fec|BcB BcB|ABA AFE|
AcA AcA|Ace a3|fec BcB|[1ABA AFE:|[2ABA AFA|
|:cee aee|fee aee|cee fec|ABA AFA|
cee aee|fef a3|fec ABA|[1ABA AFA:|[2ABA AFE|
|:cAA BAA|cAA dAA|cAA BAA|AcB AFE|
cAA BAA|ABc d2f|ecA BAF|AcA AFE:|
